X: 218
T: Ely Court
P: Longways for as many as will
%R: reel
B: "The Dancing-Master: Containing Directions and Tunes for Dancing" printed by W. Pearson for John Walsh, London ca. 1709
S: 7: DMDfD http://digital.nls.uk/special-collections-of-printed-music/pageturner.cfm?id=89751228 p.279 "B b 2"
Z: 2013 John Chambers <jc:trillian.mit.edu>
N: Repeat added to satisfy the dance instructions. The 2nd strain has 13 bars.
M: C|
L: 1/8
K: Gm
% - - - - - - - - - - - - - - - - - - - - - - - - -
d2 |\
B2 (AG) A2 ^F2 | G3 A (BA) (Bc) | d2 (cB) (de) f2 | A6 d2 |\
B2 (AG) A2 ^F2 | G3 A (Bc) d2 | e2 (dc) d2 g2 | ^f6 :|\
d2 |\
g2 (ga) b2 f2 | d2 (cB) f2 B2 |
A2 d2 (cB) (BA) | e6 (dc) |\
d2 g2 a2 ^f2 | g2 (fe) (dc) (BA) | B2 f2 (AB)(AG) | ^F2 D4 ^F2 |\
G2 AB c2 F2 | c2 f2 c2 (c/d/e) | d2 g2 (dc) (BA) | B2 (B/c/d) B2 (AG) |\
G6 |]
% - - - - - - - - - - - - - - - - - - - - - - - - -
%%begintext align
%% All four cross right-hands half round, then left-hands and back to their places, the 1st. man and 1st.
%% woman cast off two couple and lead up and cast off into the 2d. couple's place, the 3. first men lead out
%% and back again, the 3 1st. women do the same at the same time, then 1st. man goes round the 2d.
%% woman, and the 1st. woman goes round the 3. man at the same time, the 1st. man and 1st. woman sets
%% one to another and turns his Partner and falls below the 2d. couple. 2d. Strain once.
%% [DMDfD]
%%endtext
%%sep 1 8 500

%%sep 1 1 500
%%sep 1 1 500
